flaticon/arrows/spin-2.svg

<svg xmlns="http://www.w3.org/2000/svg" width="32" height="32" viewBox="0 0 24 24">
    <path d="M18.652344 4.578125C18.765625 4.535156 18.855469 4.441406 18.902344 4.332031 18.925781 4.273438 18.9375 4.214844 18.9375 4.152344L18.9375.460938C18.9375.207031 18.734375 0 18.476562 0 18.222656 0 18.015625.207031 18.015625.460938L18.015625 3.113281C16.125 1.558594 13.773438.703125 11.300781.691406 11.28125.691406 11.265625.691406 11.246094.691406 8.425781.691406 5.78125 1.785156 3.792969 3.777344-.136719 7.703125-.328125 14.070312 3.359375 18.273438 3.453125 18.375 3.578125 18.429688 3.707031 18.429688 3.816406 18.429688 3.921875 18.390625 4.011719 18.316406 4.203125 18.148438 4.222656 17.855469 4.054688 17.664062.6875 13.828125.859375 8.011719 4.445312 4.429688 6.257812 2.613281 8.671875 1.617188 11.246094 1.617188 11.261719 1.617188 11.277344 1.617188 11.296875 1.617188 13.480469 1.625 15.550781 2.359375 17.25 3.691406L14.324219 3.691406C14.070312 3.691406 13.863281 3.898438 13.863281 4.152344 13.863281 4.410156 14.070312 4.617188 14.324219 4.617188L18.476562 4.617188C18.539062 4.617188 18.597656 4.601562 18.652344 4.578125zM11.144531 22.246094C10.859375 22.195312 10.570312 22.132812 10.285156 22.058594 10.039062 21.992188 9.785156 22.140625 9.71875 22.386719 9.65625 22.632812 9.800781 22.886719 10.046875 22.953125 10.359375 23.035156 10.675781 23.101562 10.992188 23.15625 11.015625 23.160156 11.042969 23.164062 11.070312 23.164062 11.289062 23.164062 11.484375 23.003906 11.523438 22.777344 11.566406 22.527344 11.398438 22.289062 11.144531 22.246094zM22.246094 11.039062C22.296875 11.324219 22.335938 11.621094 22.363281 11.910156 22.382812 12.152344 22.585938 12.332031 22.820312 12.332031 22.835938 12.332031 22.847656 12.332031 22.863281 12.332031 23.117188 12.308594 23.304688 12.085938 23.28125 11.832031 23.253906 11.511719 23.210938 11.191406 23.15625 10.875 23.109375 10.625 22.867188 10.457031 22.617188 10.5 22.367188 10.546875 22.199219 10.785156 22.246094 11.039062zM13.78125 22.332031C13.488281 22.363281 13.191406 22.378906 12.902344 22.382812 12.648438 22.386719 12.441406 22.59375 12.445312 22.851562 12.445312 23.101562 12.652344 23.304688 12.90625 23.304688 12.90625 23.304688 12.910156 23.304688 12.910156 23.304688 13.230469 23.304688 13.554688 23.285156 13.875 23.25 14.128906 23.226562 14.3125 23 14.285156 22.746094 14.261719 22.492188 14.03125 22.316406 13.78125 22.332031zM8.632812 21.457031C8.367188 21.332031 8.105469 21.195312 7.855469 21.046875 7.632812 20.914062 7.351562 20.988281 7.222656 21.210938 7.09375 21.429688 7.164062 21.710938 7.386719 21.839844 7.660156 22.003906 7.945312 22.15625 8.238281 22.292969 8.300781 22.320312 8.367188 22.335938 8.433594 22.335938 8.609375 22.335938 8.773438 22.238281 8.851562 22.070312 8.960938 21.839844 8.863281 21.566406 8.632812 21.457031zM21.777344 9.339844C21.847656 9.527344 22.023438 9.640625 22.210938 9.640625 22.265625 9.640625 22.320312 9.628906 22.375 9.609375 22.613281 9.519531 22.734375 9.253906 22.644531 9.015625 22.53125 8.714844 22.402344 8.417969 22.265625 8.128906 22.152344 7.898438 21.875 7.804688 21.648438 7.914062 21.417969 8.023438 21.320312 8.300781 21.433594 8.53125 21.558594 8.792969 21.675781 9.066406 21.777344 9.339844zM22.355469 15.972656C22.121094 15.882812 21.851562 16 21.761719 16.234375 21.65625 16.511719 21.535156 16.78125 21.40625 17.042969 21.292969 17.269531 21.386719 17.546875 21.613281 17.660156 21.679688 17.691406 21.75 17.707031 21.820312 17.707031 21.988281 17.707031 22.152344 17.613281 22.234375 17.453125 22.375 17.164062 22.503906 16.867188 22.621094 16.566406 22.710938 16.332031 22.59375 16.0625 22.355469 15.972656zM20.667969 5.722656C20.5 5.535156 20.210938 5.515625 20.019531 5.683594 19.828125 5.851562 19.808594 6.140625 19.976562 6.332031 20.167969 6.554688 20.355469 6.785156 20.527344 7.019531 20.617188 7.144531 20.757812 7.210938 20.898438 7.210938 20.996094 7.210938 21.089844 7.179688 21.171875 7.121094 21.378906 6.972656 21.421875 6.683594 21.273438 6.476562 21.085938 6.21875 20.882812 5.964844 20.667969 5.722656zM22.863281 13.253906C22.605469 13.230469 22.382812 13.417969 22.359375 13.671875 22.332031 13.964844 22.292969 14.257812 22.238281 14.542969 22.191406 14.796875 22.355469 15.035156 22.605469 15.082031 22.636719 15.089844 22.664062 15.089844 22.691406 15.089844 22.910156 15.089844 23.105469 14.933594 23.144531 14.714844 23.203125 14.398438 23.25 14.078125 23.277344 13.757812 23.300781 13.503906 23.113281 13.277344 22.863281 13.253906zM16.339844 21.710938C16.066406 21.816406 15.785156 21.914062 15.507812 21.996094 15.261719 22.066406 15.121094 22.324219 15.195312 22.566406 15.253906 22.769531 15.4375 22.898438 15.636719 22.898438 15.679688 22.898438 15.722656 22.894531 15.765625 22.882812 16.070312 22.792969 16.378906 22.6875 16.679688 22.566406 16.914062 22.472656 17.03125 22.207031 16.9375 21.96875 16.84375 21.734375 16.578125 21.617188 16.339844 21.710938zM18.628906 20.410156C18.398438 20.589844 18.15625 20.757812 17.90625 20.914062 17.691406 21.050781 17.628906 21.335938 17.761719 21.550781 17.851562 21.691406 18 21.765625 18.152344 21.765625 18.238281 21.765625 18.324219 21.742188 18.398438 21.695312 18.671875 21.527344 18.9375 21.339844 19.191406 21.144531 19.394531 20.988281 19.433594 20.699219 19.277344 20.496094 19.121094 20.292969 18.832031 20.257812 18.628906 20.410156zM20.484375 18.539062C20.308594 18.773438 20.121094 19 19.925781 19.21875 19.753906 19.40625 19.769531 19.699219 19.957031 19.871094 20.046875 19.949219 20.15625 19.988281 20.265625 19.988281 20.394531 19.988281 20.519531 19.9375 20.609375 19.835938 20.824219 19.597656 21.03125 19.347656 21.222656 19.09375 21.375 18.890625 21.335938 18.601562 21.132812 18.449219 20.925781 18.296875 20.636719 18.335938 20.484375 18.539062zM20.484375 18.539062"/>
    <path d="M 10.171875 19.847656 C 10.171875 19.589844 9.964844 19.382812 9.707031 19.382812 L 5.554688 19.382812 C 5.496094 19.382812 5.433594 19.398438 5.378906 19.421875 C 5.265625 19.464844 5.175781 19.558594 5.128906 19.667969 C 5.105469 19.726562 5.09375 19.785156 5.09375 19.847656 L 5.09375 23.539062 C 5.09375 23.792969 5.300781 24 5.554688 24 C 5.808594 24 6.015625 23.792969 6.015625 23.539062 L 6.015625 20.816406 C 6.050781 20.824219 6.085938 20.832031 6.121094 20.832031 C 6.25 20.832031 6.378906 20.777344 6.46875 20.671875 C 6.558594 20.566406 6.589844 20.433594 6.574219 20.308594 L 9.707031 20.308594 C 9.964844 20.308594 10.171875 20.101562 10.171875 19.847656 Z M 10.171875 19.847656"/>
</svg>

<svg xmlns="http://www.w3.org/2000/svg" width="32" height="32" viewBox="0 0 24 24">
    <path d="M18.652 4.578a.454.454 0 0 0 .285-.426V.461a.462.462 0 0 0-.922 0v2.652A10.61 10.61 0 0 0 11.302.691h-.055c-2.82 0-5.465 1.094-7.453 3.086-3.93 3.926-4.121 10.293-.434 14.496a.472.472 0 0 0 .348.157.463.463 0 0 0 .348-.766C.688 13.828.859 8.012 4.445 4.43a9.535 9.535 0 0 1 6.801-2.813h.05a9.66 9.66 0 0 1 5.954 2.074h-2.926a.462.462 0 0 0 0 .926h4.153a.444.444 0 0 0 .175-.039zm0 0M11.145 22.246c-.286-.05-.575-.113-.86-.187a.464.464 0 0 0-.566.328c-.063.246.082.5.328.566.312.082.629.149.945.203a.463.463 0 0 0 .152-.91zm0 0M22.246 11.04c.05.284.09.581.117.87a.46.46 0 0 0 .457.422h.043a.46.46 0 0 0 .418-.5c-.027-.32-.07-.64-.125-.957a.47.47 0 0 0-.539-.375.462.462 0 0 0-.37.54zm0 0M13.781 22.332c-.293.031-.59.047-.879.05a.463.463 0 0 0-.457.47c0 .25.207.453.461.453h.004c.32 0 .645-.02.965-.055a.455.455 0 0 0 .41-.504.469.469 0 0 0-.504-.414zm0 0M8.633 21.457a9.195 9.195 0 0 1-.778-.41.456.456 0 0 0-.632.164.456.456 0 0 0 .164.629c.273.164.558.316.851.453a.457.457 0 0 0 .613-.223.46.46 0 0 0-.218-.613zm0 0M21.777 9.34a.462.462 0 0 0 .598.27.461.461 0 0 0 .27-.594c-.114-.301-.243-.598-.38-.887a.465.465 0 0 0-.617-.215.459.459 0 0 0-.214.617c.125.262.242.535.343.809zm0 0M22.355 15.973a.462.462 0 0 0-.593.261 9.379 9.379 0 0 1-.356.809.462.462 0 0 0 .828.41c.141-.289.27-.586.387-.887a.46.46 0 0 0-.266-.593zm0 0M20.668 5.723a.462.462 0 0 0-.691.609c.191.223.378.453.55.688a.458.458 0 0 0 .645.101.461.461 0 0 0 .101-.644c-.187-.258-.39-.512-.605-.754zm0 0M22.863 13.254a.462.462 0 0 0-.504.418 9.161 9.161 0 0 1-.12.871.46.46 0 0 0 .452.547.46.46 0 0 0 .454-.375c.058-.317.105-.637.132-.957a.464.464 0 0 0-.414-.504zm0 0M16.34 21.71c-.274.106-.555.204-.832.286a.456.456 0 0 0-.313.57.458.458 0 0 0 .442.332.485.485 0 0 0 .129-.015c.304-.09.613-.195.914-.317a.461.461 0 0 0-.34-.855zm0 0M18.629 20.41c-.23.18-.473.348-.723.504a.46.46 0 1 0 .492.781c.274-.168.54-.355.793-.55a.461.461 0 1 0-.562-.735zm0 0M20.484 18.54c-.175.233-.363.46-.558.679a.463.463 0 0 0 .031.652c.09.078.2.117.309.117.129 0 .254-.05.343-.152.215-.238.422-.488.614-.742a.46.46 0 0 0-.09-.645.465.465 0 0 0-.649.09zm0 0"/>
    <path d="M10.172 19.848a.463.463 0 0 0-.465-.465H5.555a.46.46 0 0 0-.176.039.454.454 0 0 0-.285.426v3.691a.462.462 0 0 0 .922 0v-2.723c.035.008.07.016.105.016a.456.456 0 0 0 .453-.523h3.133a.463.463 0 0 0 .465-.461zm0 0"/>
</svg>
